X:52
T:Cream Pot, The
R:jig 48
C:Trad arr. P J Headford
Z:P J Headford 2004
M:6/8
L:1/8
Q:3/8=110
K:G
|:G2A B2c|dBd efg|G2A B2c|dBG AFD|\
E2C- CEG|F2D D2c|B/c/dB cAF|G3 G3:|]
K:D
|:d2e f2g|afd ecA|faf ege|fdf ecA|\
B2G GBd|c2A A2g|faf gec|d3 d3:|]
K:G
|:B2g gdB|B2g gdB|A2A ABc|B2G AFD|\
E2C CEG|F2D D2c|BdB cAF|G3 G3:|]

